X: 28201
T: Mrs. Charles Stewart
R: reel
M: 4/4
K: Fmajor
cFdF cFAF|EGGA B2Bd|cFdF cFAF|1 ECCE F3d:|2 ECCE F3e||
fcAc fAcf|Acfa g3a|fcAc fAcf|BGcA F2Fe|
fcAc fAcf|Acfa g2fg|(3agf ge fdcA|BGcA F4||

